src/images/link_download.svg

<svg width="102" height="102" viewBox="0 0 102 102" fill="none" xmlns="http://www.w3.org/2000/svg">
<path d="M47.883 38.316L44.9207 70.3808L70.5128 72.7451L73.475 40.6803L47.883 38.316Z" fill="white" stroke="#040000" stroke-miterlimit="10" stroke-linecap="round" stroke-linejoin="round"/>
<path d="M63.0631 36.4917L37.435 38.3987L39.8244 70.5086L65.4524 68.6016L63.0631 36.4917Z" fill="white" stroke="#040000" stroke-miterlimit="10" stroke-linecap="round" stroke-linejoin="round"/>
<path d="M70.3 24C70.3 21.6 68.4 19.7 66 19.7C65.1 19.7 64.3 20 63.6 20.5C62.9 19.3 61.7 18.6 60.3 18.6C58.6 18.6 57.2 19.7 56.7 21.1C56.4 21 56 20.9 55.6 20.9C53.3 20.9 51.4 22.8 51.4 25.1C51.4 27.4 53.3 29.3 55.6 29.3C56.3 29.3 56.9 29.1 57.5 28.8C58.2 30.7 60 32.1 62.2 32.1C64.6 32.1 66.6 30.4 67.1 28.1C68.9 27.6 70.3 26 70.3 24Z" fill="white" stroke="#040000" stroke-miterlimit="10" stroke-linecap="round" stroke-linejoin="round"/>
<path d="M61.5 28.3L59.2 25.9H60.5V22.7H62.6V25.9H63.9L61.5 28.3Z" fill="#221714"/>
<path d="M43.9 48.5L60.4 46.2" stroke="#040000" stroke-miterlimit="10" stroke-linecap="round" stroke-linejoin="round"/>
<path d="M44.4 51.9L60.9 49.6" stroke="#040000" stroke-miterlimit="10" stroke-linecap="round" stroke-linejoin="round"/>
<path d="M44.9 55.7L61.4 53.4" stroke="#040000" stroke-miterlimit="10" stroke-linecap="round" stroke-linejoin="round"/>
<path d="M45.4 59L61.9 56.6" stroke="#040000" stroke-miterlimit="10" stroke-linecap="round" stroke-linejoin="round"/>
<path d="M45.8 62.2L62.3 59.9" stroke="#040000" stroke-miterlimit="10" stroke-linecap="round" stroke-linejoin="round"/>
<path d="M50.7815 33.8219L26.035 40.7532L34.7193 71.7586L59.4659 64.8273L50.7815 33.8219Z" fill="white" stroke="#040000" stroke-miterlimit="10" stroke-linecap="round" stroke-linejoin="round"/>
<path d="M33.1 51.6L49.2 47.1" stroke="#040000" stroke-miterlimit="10" stroke-linecap="round" stroke-linejoin="round"/>
<path d="M34.1 54.9L50.1 50.4" stroke="#040000" stroke-miterlimit="10" stroke-linecap="round" stroke-linejoin="round"/>
<path d="M35.1 58.6L51.1 54.1" stroke="#040000" stroke-miterlimit="10" stroke-linecap="round" stroke-linejoin="round"/>
<path d="M36 61.8L52 57.3" stroke="#040000" stroke-miterlimit="10" stroke-linecap="round" stroke-linejoin="round"/>
<path d="M36.9 64.9L52.9 60.4" stroke="#040000" stroke-miterlimit="10" stroke-linecap="round" stroke-linejoin="round"/>
<path d="M45.6 44.2C47.3673 44.2 48.8 42.7673 48.8 41C48.8 39.2327 47.3673 37.8 45.6 37.8C43.8327 37.8 42.4 39.2327 42.4 41C42.4 42.7673 43.8327 44.2 45.6 44.2Z" fill="#FFE500" stroke="#040000" stroke-miterlimit="10"/>
<path d="M45.8 37.7V41L43.4 42.4" stroke="#040000" stroke-miterlimit="10" stroke-linecap="round" stroke-linejoin="round"/>
<path d="M45.8 41H48.4" stroke="#040000" stroke-width="0.9272" stroke-miterlimit="10" stroke-linecap="round" stroke-linejoin="round"/>
</svg>

<svg width="102" height="102" fill="none" xmlns="http://www.w3.org/2000/svg"><path d="m47.883 38.316-2.962 32.065 25.592 2.364 2.962-32.065-25.592-2.364z" fill="#fff" stroke="#040000" stroke-miterlimit="10" stroke-linecap="round" stroke-linejoin="round"/><path d="m63.063 36.492-25.628 1.907 2.39 32.11 25.627-1.907-2.389-32.11zM70.3 24c0-2.4-1.9-4.3-4.3-4.3-.9 0-1.7.3-2.4.8-.7-1.2-1.9-1.9-3.3-1.9-1.7 0-3.1 1.1-3.6 2.5-.3-.1-.7-.2-1.1-.2-2.3 0-4.2 1.9-4.2 4.2 0 2.3 1.9 4.2 4.2 4.2.7 0 1.3-.2 1.9-.5.7 1.9 2.5 3.3 4.7 3.3 2.4 0 4.4-1.7 4.9-4 1.8-.5 3.2-2.1 3.2-4.1z" fill="#fff" stroke="#040000" stroke-miterlimit="10" stroke-linecap="round" stroke-linejoin="round"/><path d="m61.5 28.3-2.3-2.4h1.3v-3.2h2.1v3.2h1.3l-2.4 2.4z" fill="#221714"/><path d="m43.9 48.5 16.5-2.3M44.4 51.9l16.5-2.3M44.9 55.7l16.5-2.3M45.4 59l16.5-2.4M45.8 62.2l16.5-2.3" stroke="#040000" stroke-miterlimit="10" stroke-linecap="round" stroke-linejoin="round"/><path d="m50.782 33.822-24.747 6.931 8.684 31.006 24.747-6.932-8.684-31.005z" fill="#fff" stroke="#040000" stroke-miterlimit="10" stroke-linecap="round" stroke-linejoin="round"/><path d="m33.1 51.6 16.1-4.5M34.1 54.9l16-4.5M35.1 58.6l16-4.5M36 61.8l16-4.5M36.9 64.9l16-4.5" stroke="#040000" stroke-miterlimit="10" stroke-linecap="round" stroke-linejoin="round"/><path d="M45.6 44.2a3.2 3.2 0 1 0 0-6.4 3.2 3.2 0 0 0 0 6.4z" fill="#FFE500" stroke="#040000" stroke-miterlimit="10"/><path d="M45.8 37.7V41l-2.4 1.4" stroke="#040000" stroke-miterlimit="10" stroke-linecap="round" stroke-linejoin="round"/><path d="M45.8 41h2.6" stroke="#040000" stroke-width=".927" stroke-miterlimit="10" stroke-linecap="round" stroke-linejoin="round"/></svg>
